packages/foundations/assets/icons/functional/images/date & time/alarm_clock_20.svg

<svg width="20" height="20" viewBox="0 0 20 20" fill="none" xmlns="http://www.w3.org/2000/svg">
<g clip-path="url(#clip0_185_635)">
<path fill-rule="evenodd" clip-rule="evenodd" d="M14.9365 2C16.3969 2 17.6349 3.36513 17.6349 4.69836C17.6349 5.61905 17.127 6.50794 16.3651 6.98408C16.7778 7.90476 17 8.92063 17 9.9683C17 11.6191 16.4604 13.1111 15.5397 14.3175L16.8413 16.4127C16.9365 16.5715 17 16.7619 17 16.9524C17 17.5238 16.619 17.9683 16.0476 17.9683C15.6984 17.9683 15.381 17.8095 15.1905 17.4921L14.0477 15.7143C12.9048 16.5079 11.508 16.9841 10.0159 16.9841C8.52384 16.9841 7.12702 16.5079 5.98416 15.746L4.8413 17.5238C4.65083 17.8095 4.36506 18 4.0476 18C3.47617 18 3.03173 17.619 3.03173 17.0476C3.03173 16.8571 3.06353 16.6349 3.19051 16.4445L4.49205 14.3492C3.60316 13.1429 3.03173 11.6191 3.03173 9.9683C3.03173 8.95243 3.254 7.93656 3.66665 7.01587C2.87305 6.50794 2.36511 5.65084 2.36511 4.73016C2.36511 3.23815 3.57146 2 4.99998 2C6.04765 2 7.06352 2.60323 7.50797 3.49211C8.33337 3.14286 9.09527 3.01587 10.0159 3.01587C10.9047 3.01587 11.6984 3.11116 12.5238 3.39683C13 2.53963 13.9207 2 14.9365 2ZM10.0462 4.98413C7.26763 4.98413 4.99998 7.25167 4.99998 10.0303C4.99998 12.809 7.26763 15.0765 10.0462 15.0765C12.8248 15.0765 15.0924 12.809 15.0924 10.0303C15.0924 7.25167 12.8248 4.98413 10.0462 4.98413ZM11 6.53973V9.61905L12.7778 11.3333L11.381 12.7937L9.03178 10.4762V6.53973H11Z" fill="#1A1C1F"/>
</g>
<defs>
<clipPath id="clip0_185_635">
<rect width="20" height="20" fill="white"/>
</clipPath>
</defs>
</svg>

<svg xmlns="http://www.w3.org/2000/svg" width="20" height="20" fill="none"><g clip-path="url(#a)"><path fill="#1A1C1F" fill-rule="evenodd" d="M14.937 2c1.46 0 2.698 1.365 2.698 2.698 0 .921-.508 1.81-1.27 2.286.413.92.635 1.937.635 2.984 0 1.651-.54 3.143-1.46 4.35l1.301 2.095c.095.159.159.349.159.54 0 .57-.381 1.015-.952 1.015a.97.97 0 0 1-.857-.476l-1.143-1.778a7.07 7.07 0 0 1-4.032 1.27 7.3 7.3 0 0 1-4.032-1.238l-1.143 1.778c-.19.285-.476.476-.793.476-.572 0-1.016-.381-1.016-.952 0-.19.032-.413.159-.603l1.301-2.096a7.4 7.4 0 0 1-1.46-4.38c0-1.017.222-2.032.635-2.953-.794-.508-1.302-1.365-1.302-2.286C2.365 3.238 3.571 2 5 2c1.048 0 2.064.603 2.508 1.492.825-.35 1.587-.476 2.508-.476.889 0 1.682.095 2.508.38A2.75 2.75 0 0 1 14.937 2m-4.89 2.984A5.057 5.057 0 0 0 5 10.03a5.057 5.057 0 0 0 5.046 5.047 5.057 5.057 0 0 0 5.046-5.047 5.057 5.057 0 0 0-5.046-5.046M11 6.54v3.079l1.778 1.714-1.397 1.46-2.35-2.317V6.54z" clip-rule="evenodd"/></g><defs><clipPath id="a"><path fill="#fff" d="M0 0h20v20H0z"/></clipPath></defs></svg>
